X: 17487
T: Hills Of Alva, The
R: reel
M: 4/4
K: Dmajor
A|:f2 fa g2 e>f|ge Ae d2 A2|B<d GB A2 a2|g>f ed dc BA|
f2 fa g2 ef|ge Ae d2 A2|Bd gB Aa a>g|fe aA d2 d:|
A|:a2 a>g fd A2|A>B df e2 A2|g2 gf ec A2|g>f ed dc BA|
a2 a>g fd A2|A>B df e2 A2|Bd gB Aa a>g|f>e aA d2 d:|
f|:A>B A2 d>e d2|f>g fe d2 A2|B>d g2 A>d f2|g>f ed dc BA|
A>B A2 d>e d2|f>g fe d2 A2|B>d gB aA a>g|fe aA d2 d:|
f|:a>f ge df A2|A>B ed B2 A2|g>f eA ce a2|g>f ed dc BA|
a>f ge df A2|A>B ed B2 A2|Bd gB Aa a>g|fe aA d2 d:|

